X:16308
T:Tansey's Favourite
R:reel
S:Tommy Peoples & Dermot Byrnes
H:
N: Also on John Carty: Last Night's Fun 
D:Concert, Galway.
Z:Adrian Scahill
M:4/4
L:1/8
K:G
G2DG EGDG|GABG AEE2|G2BG (3EFG AB|1 cedc BcAB:|2 c2Ac BGG2||\
gdd2 eBB2|(3dcB AB GEE2|gdd2 edcd|(3Bcd gd BGG2|\
g2fg eBdB|c3B AGEG|c3d edfa|gedc BcAB||
